svg/furkot/icomoon/eye-blocked.svg

<svg viewBox="0 0 512 512" xmlns="http://www.w3.org/2000/svg"><path d="m472.968 7.032c-9.376-9.368-24.568-9.368-33.944 0l-101.08 101.08c-25.968-7.88-53.472-12.112-81.944-12.112-111.656 0-208.44 65.024-256 160 20.56 41.064 50.32 76.52 86.512 103.552l-79.48 79.48c-9.376 9.376-9.376 24.568 0 33.944 4.688 4.688 10.824 7.032 16.968 7.032s12.28-2.344 16.968-7.032l432-432c9.376-9.376 9.376-24.568 0-33.944zm-264.968 152.968c21.12 0 39.04 13.648 45.464 32.6l-60.864 60.864c-18.952-6.416-32.6-24.344-32.6-45.464 0-26.512 21.488-48 48-48zm-152.944 96c19.144-30.264 44.64-55.96 74.72-75.144 1.96-1.248 3.936-2.464 5.928-3.648-4.984 13.664-7.704 28.408-7.704 43.8 0 27.448 8.64 52.872 23.352 73.712l-30.464 30.464c-26.224-18.424-48.6-41.944-65.832-69.168zm328.944-35c0-13.584-2.128-26.664-6.048-38.952l-160.904 160.904c12.28 3.92 25.368 6.048 38.952 6.048 70.688 0 128-57.312 128-128z"/><path d="m415.016 144.984-34.68 34.68c.632.392 1.264.784 1.896 1.184 30.08 19.184 55.568 44.888 74.72 75.144-19.144 30.264-44.64 55.96-74.72 75.152-37.8 24.112-81.448 36.848-126.224 36.848-19.328 0-38.448-2.376-56.984-7.016l-38.448 38.448c29.856 10.728 61.976 16.576 95.424 16.576 111.656 0 208.44-65.024 256-160-22.512-44.96-56.056-83.2-96.984-111.016z"/></svg>

<svg xmlns="http://www.w3.org/2000/svg" viewBox="0 0 512 512"><path d="M472.968 7.032C463.592-2.336 448.4-2.336 439.024 7.032L337.944 108.112C311.976 100.232 284.472 96 256 96 144.344 96 47.56 161.024 0 256 20.56 297.064 50.32 332.52 86.512 359.552L7.032 439.032C-2.344 448.408-2.344 463.6 7.032 472.976 11.72 477.664 17.856 480.008 24 480.008S36.28 477.664 40.968 472.976L472.968 40.976C482.344 31.6 482.344 16.408 472.968 7.032ZM208 160C229.12 160 247.04 173.648 253.464 192.6L192.6 253.464C173.648 247.048 160 229.12 160 208 160 181.488 181.488 160 208 160ZM55.056 256C74.2 225.736 99.696 200.04 129.776 180.856 131.736 179.608 133.712 178.392 135.704 177.208 130.72 190.872 128 205.616 128 221.008 128 248.456 136.64 273.88 151.352 294.72L120.888 325.184C94.664 306.76 72.288 283.24 55.056 256.016ZM384 221C384 207.416 381.872 194.336 377.952 182.048L217.048 342.952C229.328 346.872 242.416 349 256 349 326.688 349 384 291.688 384 221Z"/><path d="M415.016 144.984L380.336 179.664C380.968 180.056 381.6 180.448 382.232 180.848 412.312 200.032 437.8 225.736 456.952 255.992 437.808 286.256 412.312 311.952 382.232 331.144 344.432 355.256 300.784 367.992 256.008 367.992 236.68 367.992 217.56 365.616 199.024 360.976L160.576 399.424C190.432 410.152 222.552 416 256 416 367.656 416 464.44 350.976 512 256 489.488 211.04 455.944 172.8 415.016 144.984Z"/></svg>
